X: 32
T:Archibald McDonald of Keppoch
M:3/4
L:1/4
R:Air
K:Dm
D/E/|"Dm"F>GA|f>ed|"F"c>AF|"C"G2 D/E/|"Dm"F>GA|f>ed|"A7"A<d ^c|"Dm"d2:||
